X:1
T:Title
%%score { 1 | 2 }
L:1/8
Q:1/4=100
M:2/2
K:Ab
V:1 treble nm="Grand Piano"
V:2 bass 
V:1
 A3 A G2 F2 | =E2 F2 C4 | F2 F2 [FA]2 [FA]2 | [FG]2 [=EG]2 F4 | A3 A [FB]2 [FB]2 | %5
w: H.~J.~E.~Holmes * * *|||||
 [Gd]2 [EGd]2 [EAc]4 | [FAc]2 [CFA]2 [DFA]2 [A,F]2 | [CFG]2 [C=EA]2 [A,F]4 |] %8
w: |||
V:2
 A,3 A, G,2 F,2 | =E,2 F,2 C,4 | [C,A,C]2 [C,A,C]2 [C,C]2 [C,C]2 | [C,G,]2 [C,B,]2 [F,A,]4 | %4
 [F,CF]3 [F,CF] [D,D]2 [D,D]2 | [E,B,]2 E,2 A,4 | F,2 F,2 D,2 D,2 | C,2 C,2 F,4 |] %8

